X:1
T:Title
%%score { ( 1 3 ) | 2 }
L:1/8
M:4/4
K:Ab
V:1 treble nm="Grand Piano"
V:3 treble 
V:2 bass 
V:1
 z4 z2[Q:1/4=100] [CE]>[CE] | [CA]>[CA] [CA]>[CA] [CA]2 [EG]>[EA] | B>B B>B B2 [EA]>B | %3
 c>c c>c c2 B>A |[M:3/4] B6 |[M:1/4] E>[DE] |[M:4/4] [CA]>[CA] [CA]>[CA] [CA]2 [DG]>[EA] | %7
 B>B B>B B2 c>d | e>c B>A F2 A>B |[M:3/4] [CA]6 |[M:1/4] c>d |[M:4/4] e6 z2 | d6 z2 | %13
 [Ec]>[Ec] [Ec]>[Ec] [Ee]2 [Ec]>[Ec] |[M:3/4] [EB]6[K:bass] |[M:1/4] [A,E]>[G,DE] | %16
[M:4/4][K:treble] [A,CA]>[CA] [CA]>[CA] [CA]2 [DG]>[EA] | B>B B>B B2 c>d | e>c B>A F2 A>B | %19
[M:7/4] [CA]6 z2 z2 z4 |] %20
V:2
 z4 z2 [A,,A,]>[A,,A,] | [A,,E,]>[A,,E,] [A,,E,]>[A,,E,] [A,,E,]2 [B,,E,]>[A,,A,] | %2
 [E,G,E]>[E,G,E] [E,G,E]>[E,G,E] [E,G,E]2 [C,A,]>[E,G,E] | %3
 [A,E]>[A,E] [A,E]>[A,E] [A,E]2 [E,G,E]>[E,A,E] |[M:3/4] [E,G,E]6 |[M:1/4] [C,A,]>[B,,G,] | %6
[M:4/4] [A,,A,]>[A,,E,] [A,,E,]>[A,,E,] [A,,E,]2 [B,,E,]>[A,,A,] | %7
 [E,G,E]>[E,G,E] [E,G,E]>[E,G,E] [E,G,E]2 [A,E]>[G,B,E] | %8
 [A,CE]>[A,E] [E,G,D]>[F,A,C] [D,A,D]2 [E,C]>[E,D] |[M:3/4] [A,,E,]6 |[M:1/4] [A,E]>[A,B,E] | %11
[M:4/4] [A,CE]2 [A,C]>[A,C] [A,C]2 [A,E]>[A,E] | [D,A,]2 [D,A,]>[D,A,] [D,A,]2 [D,A,]>[D,A,] | %13
 [A,,A,]>[A,,A,] [A,,A,]>[A,,A,] [C,A,]2 [A,,A,]>[A,,A,] |[M:3/4] [E,G,]2 E,>E, E,D, | %15
[M:1/4] C,>B,, |[M:4/4] A,,>[A,,E,] [A,,E,]>[A,,E,] [A,,E,]2 [B,,E,]>[A,,A,] | %17
 [E,G,E]>[E,G,E] [E,G,E]>[E,G,E] [E,G,E]2 [A,E]>[G,B,E] | %18
 [A,CE]>[A,E] [E,G,D]>[F,A,C] [D,A,D]2 [E,C]>[E,D] |[M:7/4] [A,,E,]6 z2 z2 z4 |] %20
V:3
 x8 | x8 | x8 | x8 |[M:3/4] x6 |[M:1/4] x2 |[M:4/4] x8 | x8 | x8 |[M:3/4] x6 |[M:1/4] x2 | %11
[M:4/4] z2 E>E E2 c>c | F2 F>F F2 [Fd]>[Fd] | x8 |[M:3/4] z2[K:bass] G,>G, G,2 |[M:1/4] x2 | %16
[M:4/4][K:treble] x8 | x8 | x8 |[M:7/4] x14 |] %20

